X: 20452
T: John Joe Harnett's
R: slide
M: 12/8
K: Amajor
|:E|A3 BAF A2 F E2 f|e2 c cBA c2 B BAF|
AGA BAF A2 F E2 f|e2 c BAG A3 A2:|
|:B|cdc cBA BcB B2 F|A2 A ABc e2 A c2 B|
A2 E B2 F ABF E3|e2 c B2 G A3- A2:|

